svg/color/cwd.svg

<?xml version="1.0" encoding="UTF-8" ?>
<!DOCTYPE svg PUBLIC "-//W3C//DTD SVG 1.1//EN" "http://www.w3.org/Graphics/SVG/1.1/DTD/svg11.dtd">
<svg width="250pt" height="250pt" viewBox="0 0 250 250" version="1.1" xmlns="http://www.w3.org/2000/svg">
<g id="#212121ff">
<path fill="#212121" opacity="1.00" d=" M 0.00 0.00 L 250.00 0.00 L 250.00 250.00 L 0.00 250.00 L 0.00 0.00 M 122.69 48.31 C 120.48 62.35 121.00 77.21 114.60 90.27 C 104.45 83.32 95.02 74.52 82.90 71.11 C 79.52 69.88 75.20 71.05 73.73 74.55 C 72.64 79.61 74.58 84.62 76.63 89.17 C 80.93 98.20 86.68 106.44 92.66 114.42 C 85.05 119.82 75.69 121.26 66.72 122.84 C 66.72 124.28 66.73 125.72 66.73 127.16 C 75.22 128.72 84.07 129.97 91.46 134.77 C 92.67 135.47 91.37 137.04 90.94 137.88 C 84.29 147.22 77.37 156.76 74.00 167.87 C 73.27 171.26 72.58 175.75 75.82 178.11 C 79.90 180.79 84.85 178.40 88.83 176.70 C 98.36 172.57 106.07 165.47 114.60 159.77 C 121.03 172.81 120.43 187.66 122.70 201.68 C 124.24 201.68 125.77 201.68 127.31 201.68 C 129.53 187.64 129.00 172.80 135.40 159.75 C 145.57 166.67 154.97 175.49 167.10 178.89 C 170.48 180.12 174.79 178.94 176.27 175.45 C 177.61 168.28 173.80 161.54 170.57 155.42 C 166.86 148.26 161.61 142.06 157.52 135.14 C 165.37 130.43 174.35 128.59 183.27 127.16 C 183.27 125.72 183.28 124.28 183.29 122.84 C 174.31 121.31 164.97 119.77 157.33 114.43 C 163.40 106.28 169.30 97.90 173.60 88.66 C 175.32 84.71 176.97 80.51 176.50 76.12 C 176.48 73.22 173.75 71.00 171.01 70.68 C 168.62 70.53 166.29 71.28 164.06 72.06 C 153.50 76.23 144.58 83.44 135.73 90.38 C 128.68 77.53 129.71 62.36 127.30 48.31 C 125.76 48.31 124.23 48.31 122.69 48.31 Z" />
<path fill="#212121" opacity="1.00" d=" M 124.97 71.97 C 126.21 79.58 128.47 86.97 131.65 94.00 C 129.41 95.96 127.21 97.96 125.00 99.94 C 122.79 97.96 120.60 95.96 118.37 94.00 C 121.48 86.96 123.85 79.60 124.97 71.97 Z" />
<path fill="#212121" opacity="1.00" d=" M 78.33 75.79 C 82.96 75.38 87.09 77.92 91.04 79.96 C 98.31 84.13 105.10 89.16 111.45 94.62 C 111.47 94.91 111.50 95.49 111.52 95.79 C 107.85 102.06 102.63 107.33 96.94 111.80 C 91.75 105.27 87.02 98.34 83.03 91.00 C 80.51 86.30 78.02 81.27 78.33 75.79 Z" />
<path fill="#212121" opacity="1.00" d=" M 165.85 76.66 C 167.69 75.88 169.68 75.64 171.67 75.79 C 171.80 79.44 170.91 83.01 169.32 86.27 C 165.04 95.44 159.32 103.87 153.06 111.79 C 147.48 107.48 142.49 102.32 138.75 96.33 C 137.81 95.05 139.14 93.90 140.12 93.20 C 148.11 86.87 156.31 80.51 165.85 76.66 Z" />
<path fill="#212121" opacity="1.00" d=" M 100.05 115.85 C 106.10 110.77 111.48 104.97 115.95 98.45 C 117.93 99.96 119.73 101.69 121.19 103.70 C 115.34 109.30 109.98 115.36 104.25 121.07 C 102.85 119.33 101.45 117.59 100.05 115.85 Z" />
<path fill="#212121" opacity="1.00" d=" M 128.75 103.17 C 130.49 101.56 132.25 99.97 134.04 98.41 C 138.50 104.98 143.93 110.80 150.01 115.90 C 148.54 117.69 146.99 119.41 145.36 121.06 C 140.18 114.77 133.98 109.41 128.75 103.17 Z" />
<path fill="#212121" opacity="1.00" d=" M 110.58 121.60 C 115.31 116.63 120.03 111.66 125.00 106.94 C 130.13 111.84 135.06 116.95 139.90 122.15 C 140.79 123.23 142.49 124.75 141.23 126.20 C 136.20 132.16 130.56 137.60 125.00 143.06 C 120.19 138.51 115.64 133.70 111.06 128.92 C 110.06 127.68 108.70 126.58 108.26 125.00 C 108.57 123.62 109.74 122.67 110.58 121.60 Z" />
<path fill="#212121" opacity="1.00" d=" M 81.73 125.00 C 86.64 123.33 91.26 120.96 95.92 118.72 C 97.74 120.73 99.49 122.81 101.10 125.00 C 99.48 127.19 97.73 129.28 95.92 131.31 C 91.29 128.99 86.64 126.68 81.73 125.00 Z" />
<path fill="#212121" opacity="1.00" d=" M 148.90 125.00 C 150.52 122.81 152.26 120.73 154.06 118.70 C 158.71 121.00 163.36 123.33 168.28 125.00 C 163.36 126.66 158.74 129.06 154.05 131.27 C 152.25 129.25 150.51 127.18 148.90 125.00 Z" />
<path fill="#212121" opacity="1.00" d=" M 100.00 134.10 C 101.49 132.33 103.02 130.60 104.64 128.94 C 109.86 135.01 115.54 140.66 121.20 146.31 C 119.71 148.32 117.92 150.06 115.95 151.60 C 111.50 145.02 106.06 139.21 100.00 134.10 Z" />
<path fill="#212121" opacity="1.00" d=" M 128.75 146.84 C 134.14 140.64 140.06 134.90 145.74 128.96 C 147.14 130.68 148.55 132.40 149.97 134.12 C 143.92 139.22 138.52 145.02 134.04 151.55 C 132.25 150.01 130.49 148.43 128.75 146.84 Z" />
<path fill="#212121" opacity="1.00" d=" M 80.69 163.70 C 84.98 154.55 90.68 146.12 96.95 138.21 C 102.52 142.53 107.52 147.68 111.26 153.68 C 112.19 154.95 110.84 156.09 109.89 156.79 C 101.89 163.12 93.68 169.48 84.15 173.34 C 82.31 174.12 80.31 174.35 78.32 174.20 C 78.20 170.55 79.09 166.97 80.69 163.70 Z" />
<path fill="#212121" opacity="1.00" d=" M 138.47 154.22 C 142.15 147.95 147.35 142.67 153.06 138.20 C 158.29 144.76 163.02 151.73 167.03 159.11 C 169.53 163.77 171.98 168.77 171.67 174.22 C 167.04 174.63 162.91 172.08 158.96 170.04 C 151.69 165.87 144.90 160.85 138.56 155.39 C 138.54 155.10 138.49 154.52 138.47 154.22 Z" />
<path fill="#212121" opacity="1.00" d=" M 118.35 156.00 C 120.58 154.04 122.78 152.05 125.00 150.07 C 127.21 152.05 129.40 154.04 131.62 155.98 C 128.50 163.07 126.19 170.47 124.98 178.13 C 123.91 170.45 121.50 163.06 118.35 156.00 Z" />
</g>
<g id="#fbfbfbff">
<path fill="#fbfbfb" opacity="1.00" d=" M 122.69 48.31 C 124.23 48.31 125.76 48.31 127.30 48.31 C 129.71 62.36 128.68 77.53 135.73 90.38 C 144.58 83.44 153.50 76.23 164.06 72.06 C 166.29 71.28 168.62 70.53 171.01 70.68 C 173.75 71.00 176.48 73.22 176.50 76.12 C 176.97 80.51 175.32 84.71 173.60 88.66 C 169.30 97.90 163.40 106.28 157.33 114.43 C 164.97 119.77 174.31 121.31 183.29 122.84 C 183.28 124.28 183.27 125.72 183.27 127.16 C 174.35 128.59 165.37 130.43 157.52 135.14 C 161.61 142.06 166.86 148.26 170.57 155.42 C 173.80 161.54 177.61 168.28 176.27 175.45 C 174.79 178.94 170.48 180.12 167.10 178.89 C 154.97 175.49 145.57 166.67 135.40 159.75 C 129.00 172.80 129.53 187.64 127.31 201.68 C 125.77 201.68 124.24 201.68 122.70 201.68 C 120.43 187.66 121.03 172.81 114.60 159.77 C 106.07 165.47 98.36 172.57 88.83 176.70 C 84.85 178.40 79.90 180.79 75.82 178.11 C 72.58 175.75 73.27 171.26 74.00 167.87 C 77.37 156.76 84.29 147.22 90.94 137.88 C 91.37 137.04 92.67 135.47 91.46 134.77 C 84.07 129.97 75.22 128.72 66.73 127.16 C 66.73 125.72 66.72 124.28 66.72 122.84 C 75.69 121.26 85.05 119.82 92.66 114.42 C 86.68 106.44 80.93 98.20 76.63 89.17 C 74.58 84.62 72.64 79.61 73.73 74.55 C 75.20 71.05 79.52 69.88 82.90 71.11 C 95.02 74.52 104.45 83.32 114.60 90.27 C 121.00 77.21 120.48 62.35 122.69 48.31 M 124.97 71.97 C 123.85 79.60 121.48 86.96 118.37 94.00 C 120.60 95.96 122.79 97.96 125.00 99.94 C 127.21 97.96 129.41 95.96 131.65 94.00 C 128.47 86.97 126.21 79.58 124.97 71.97 M 78.33 75.79 C 78.02 81.27 80.51 86.30 83.03 91.00 C 87.02 98.34 91.75 105.27 96.94 111.80 C 102.63 107.33 107.85 102.06 111.52 95.79 C 111.50 95.49 111.47 94.91 111.45 94.62 C 105.10 89.16 98.31 84.13 91.04 79.96 C 87.09 77.92 82.96 75.38 78.33 75.79 M 165.85 76.66 C 156.31 80.51 148.11 86.87 140.12 93.20 C 139.14 93.90 137.81 95.05 138.75 96.33 C 142.49 102.32 147.48 107.48 153.06 111.79 C 159.32 103.87 165.04 95.44 169.32 86.27 C 170.91 83.01 171.80 79.44 171.67 75.79 C 169.68 75.64 167.69 75.88 165.85 76.66 M 100.05 115.85 C 101.45 117.59 102.85 119.33 104.25 121.07 C 109.98 115.36 115.34 109.30 121.19 103.70 C 119.73 101.69 117.93 99.96 115.95 98.45 C 111.48 104.97 106.10 110.77 100.05 115.85 M 128.75 103.17 C 133.98 109.41 140.18 114.77 145.36 121.06 C 146.99 119.41 148.54 117.69 150.01 115.90 C 143.93 110.80 138.50 104.98 134.04 98.41 C 132.25 99.97 130.49 101.56 128.75 103.17 M 110.58 121.60 C 109.74 122.67 108.57 123.62 108.26 125.00 C 108.70 126.58 110.06 127.68 111.06 128.92 C 115.64 133.70 120.19 138.51 125.00 143.06 C 130.56 137.60 136.20 132.16 141.23 126.20 C 142.49 124.75 140.79 123.23 139.90 122.15 C 135.06 116.95 130.13 111.84 125.00 106.94 C 120.03 111.66 115.31 116.63 110.58 121.60 M 81.73 125.00 C 86.64 126.68 91.29 128.99 95.92 131.31 C 97.73 129.28 99.48 127.19 101.10 125.00 C 99.49 122.81 97.74 120.73 95.92 118.72 C 91.26 120.96 86.64 123.33 81.73 125.00 M 148.90 125.00 C 150.51 127.18 152.25 129.25 154.05 131.27 C 158.74 129.06 163.36 126.66 168.28 125.00 C 163.36 123.33 158.71 121.00 154.06 118.70 C 152.26 120.73 150.52 122.81 148.90 125.00 M 100.00 134.10 C 106.06 139.21 111.50 145.02 115.95 151.60 C 117.92 150.06 119.71 148.32 121.20 146.31 C 115.54 140.66 109.86 135.01 104.64 128.94 C 103.02 130.60 101.49 132.33 100.00 134.10 M 128.75 146.84 C 130.49 148.43 132.25 150.01 134.04 151.55 C 138.52 145.02 143.92 139.22 149.97 134.12 C 148.55 132.40 147.14 130.68 145.74 128.96 C 140.06 134.90 134.14 140.64 128.75 146.84 M 80.69 163.70 C 79.09 166.97 78.20 170.55 78.32 174.20 C 80.31 174.35 82.31 174.12 84.15 173.34 C 93.68 169.48 101.89 163.12 109.89 156.79 C 110.84 156.09 112.19 154.95 111.26 153.68 C 107.52 147.68 102.52 142.53 96.95 138.21 C 90.68 146.12 84.98 154.55 80.69 163.70 M 138.47 154.22 C 138.49 154.52 138.54 155.10 138.56 155.39 C 144.90 160.85 151.69 165.87 158.96 170.04 C 162.91 172.08 167.04 174.63 171.67 174.22 C 171.98 168.77 169.53 163.77 167.03 159.11 C 163.02 151.73 158.29 144.76 153.06 138.20 C 147.35 142.67 142.15 147.95 138.47 154.22 M 118.35 156.00 C 121.50 163.06 123.91 170.45 124.98 178.13 C 126.19 170.47 128.50 163.07 131.62 155.98 C 129.40 154.04 127.21 152.05 125.00 150.07 C 122.78 152.05 120.58 154.04 118.35 156.00 Z" />
</g>
</svg>

<?xml version="1.0" encoding="utf-8"?>
<!-- Generator: Adobe Illustrator 26.0.3, SVG Export Plug-In . SVG Version: 6.00 Build 0)  -->
<svg version="1.1" id="Layer_1" xmlns="http://www.w3.org/2000/svg" xmlns:xlink="http://www.w3.org/1999/xlink" x="0px" y="0px"
	 viewBox="0 0 250 250" style="enable-background:new 0 0 250 250;" xml:space="preserve">
<style type="text/css">
	.st0{fill:#212121;}
	.st1{fill:#FBFBFB;}
</style>
<circle class="st0" cx="125" cy="125.5" r="125"/>
<g id="_x23_212121ff">
	<path class="st0" d="M125,72c1.2,7.6,3.5,15,6.7,22c-2.2,2-4.4,4-6.6,5.9c-2.2-2-4.4-4-6.6-5.9C121.5,87,123.8,79.6,125,72z"/>
	<path class="st0" d="M78.3,75.8C83,75.4,87.1,77.9,91,80c7.3,4.2,14.1,9.2,20.4,14.7c0,0.3,0.1,0.9,0.1,1.2
		c-3.7,6.3-8.9,11.5-14.6,16C91.8,105.3,87,98.3,83,91C80.5,86.3,78,81.3,78.3,75.8z"/>
	<path class="st0" d="M165.9,76.7c1.8-0.8,3.8-1,5.8-0.9c0.1,3.7-0.8,7.2-2.3,10.5c-4.3,9.2-10,17.6-16.3,25.5
		c-5.6-4.3-10.6-9.5-14.3-15.5c-0.9-1.3,0.4-2.4,1.4-3.1C148.1,86.9,156.3,80.5,165.9,76.7z"/>
	<path class="st0" d="M100.1,115.8c6-5.1,11.4-10.9,15.9-17.4c2,1.5,3.8,3.2,5.2,5.2c-5.9,5.6-11.2,11.7-16.9,17.4
		C102.8,119.3,101.4,117.6,100.1,115.8z"/>
	<path class="st0" d="M128.8,103.2c1.7-1.6,3.5-3.2,5.3-4.8c4.5,6.6,9.9,12.4,16,17.5c-1.5,1.8-3,3.5-4.6,5.2
		C140.2,114.8,134,109.4,128.8,103.2z"/>
	<path class="st0" d="M110.6,121.6c4.7-5,9.4-9.9,14.4-14.7c5.1,4.9,10.1,10,14.9,15.2c0.9,1.1,2.6,2.6,1.3,4
		c-5,6-10.7,11.4-16.2,16.9c-4.8-4.6-9.4-9.4-13.9-14.1c-1-1.2-2.4-2.3-2.8-3.9C108.6,123.6,109.7,122.7,110.6,121.6z"/>
	<path class="st0" d="M81.7,125c4.9-1.7,9.5-4,14.2-6.3c1.8,2,3.6,4.1,5.2,6.3c-1.6,2.2-3.4,4.3-5.2,6.3
		C91.3,129,86.6,126.7,81.7,125z"/>
	<path class="st0" d="M148.9,125c1.6-2.2,3.4-4.3,5.2-6.3c4.7,2.3,9.3,4.6,14.2,6.3c-4.9,1.7-9.5,4.1-14.2,6.3
		C152.2,129.2,150.5,127.2,148.9,125z"/>
	<path class="st0" d="M100,134.1c1.5-1.8,3-3.5,4.6-5.2c5.2,6.1,10.9,11.7,16.6,17.4c-1.5,2-3.3,3.8-5.2,5.3
		C111.5,145,106.1,139.2,100,134.1z"/>
	<path class="st0" d="M128.8,146.8c5.4-6.2,11.3-11.9,17-17.9c1.4,1.7,2.8,3.4,4.2,5.2c-6.1,5.1-11.4,10.9-15.9,17.4
		C132.2,150,130.5,148.4,128.8,146.8z"/>
	<path class="st0" d="M80.7,163.7c4.3-9.1,10-17.6,16.3-25.5c5.6,4.3,10.6,9.5,14.3,15.5c0.9,1.3-0.4,2.4-1.4,3.1
		c-8,6.3-16.2,12.7-25.7,16.6c-1.8,0.8-3.8,1-5.8,0.9C78.2,170.6,79.1,167,80.7,163.7z"/>
	<path class="st0" d="M138.5,154.2c3.7-6.3,8.9-11.6,14.6-16c5.2,6.6,10,13.5,14,20.9c2.5,4.7,4.9,9.7,4.6,15.1
		c-4.6,0.4-8.8-2.1-12.7-4.2c-7.3-4.2-14.1-9.2-20.4-14.6C138.5,155.1,138.5,154.5,138.5,154.2z"/>
	<path class="st0" d="M118.3,156c2.2-2,4.4-3.9,6.7-5.9c2.2,2,4.4,4,6.6,5.9c-3.1,7.1-5.4,14.5-6.6,22.2
		C123.9,170.4,121.5,163.1,118.3,156z"/>
</g>
<g id="_x23_fbfbfbff">
	<path class="st1" d="M122.7,48.3c1.5,0,3.1,0,4.6,0c2.4,14,1.4,29.2,8.4,42.1c8.9-6.9,17.8-14.1,28.3-18.3c2.2-0.8,4.6-1.5,6.9-1.4
		c2.7,0.3,5.5,2.5,5.5,5.4c0.5,4.4-1.2,8.6-2.9,12.5c-4.3,9.2-10.2,17.6-16.3,25.8c7.6,5.3,17,6.9,26,8.4c0,1.4,0,2.9,0,4.3
		c-8.9,1.4-17.9,3.3-25.8,8c4.1,6.9,9.3,13.1,13.1,20.3c3.2,6.1,7,12.9,5.7,20c-1.5,3.5-5.8,4.7-9.2,3.4
		c-12.1-3.4-21.5-12.2-31.7-19.1c-6.4,13.1-5.9,27.9-8.1,41.9c-1.5,0-3.1,0-4.6,0c-2.3-14-1.7-28.9-8.1-41.9
		c-8.5,5.7-16.2,12.8-25.8,16.9c-4,1.7-8.9,4.1-13,1.4c-3.2-2.4-2.6-6.9-1.8-10.2c3.4-11.1,10.3-20.6,16.9-30
		c0.4-0.8,1.7-2.4,0.5-3.1c-7.4-4.8-16.2-6.1-24.7-7.6c0-1.4,0-2.9,0-4.3c9-1.6,18.3-3,25.9-8.4c-6-8-11.7-16.2-16-25.2
		c-2-4.5-4-9.6-2.9-14.6c1.5-3.5,5.8-4.7,9.2-3.4c12.1,3.4,21.5,12.2,31.7,19.2C121,77.2,120.5,62.3,122.7,48.3 M125,72
		c-1.1,7.6-3.5,15-6.6,22c2.2,2,4.4,4,6.6,5.9c2.2-2,4.4-4,6.6-5.9C128.5,87,126.2,79.6,125,72 M78.3,75.8C78,81.3,80.5,86.3,83,91
		c4,7.3,8.7,14.3,13.9,20.8c5.7-4.5,10.9-9.7,14.6-16c0-0.3,0-0.9-0.1-1.2C105.1,89.2,98.3,84.1,91,80C87.1,77.9,83,75.4,78.3,75.8
		 M165.9,76.7c-9.5,3.8-17.7,10.2-25.7,16.5c-1,0.7-2.3,1.9-1.4,3.1c3.7,6,8.7,11.2,14.3,15.5c6.3-7.9,12-16.3,16.3-25.5
		c1.6-3.3,2.5-6.8,2.3-10.5C169.7,75.6,167.7,75.9,165.9,76.7 M100.1,115.8c1.4,1.7,2.8,3.5,4.2,5.2c5.7-5.7,11.1-11.8,16.9-17.4
		c-1.5-2-3.3-3.7-5.2-5.2C111.5,105,106.1,110.8,100.1,115.8 M128.8,103.2c5.2,6.2,11.4,11.6,16.6,17.9c1.6-1.6,3.2-3.4,4.6-5.2
		c-6.1-5.1-11.5-10.9-16-17.5C132.2,100,130.5,101.6,128.8,103.2 M110.6,121.6c-0.8,1.1-2,2-2.3,3.4c0.4,1.6,1.8,2.7,2.8,3.9
		c4.6,4.8,9.1,9.6,13.9,14.1c5.6-5.5,11.2-10.9,16.2-16.9c1.3-1.4-0.4-3-1.3-4c-4.8-5.2-9.8-10.3-14.9-15.2
		C120,111.7,115.3,116.6,110.6,121.6 M81.7,125c4.9,1.7,9.6,4,14.2,6.3c1.8-2,3.6-4.1,5.2-6.3c-1.6-2.2-3.4-4.3-5.2-6.3
		C91.3,121,86.6,123.3,81.7,125 M148.9,125c1.6,2.2,3.4,4.2,5.2,6.3c4.7-2.2,9.3-4.6,14.2-6.3c-4.9-1.7-9.6-4-14.2-6.3
		C152.3,120.7,150.5,122.8,148.9,125 M100,134.1c6.1,5.1,11.5,10.9,15.9,17.5c2-1.5,3.8-3.3,5.2-5.3c-5.7-5.6-11.3-11.3-16.6-17.4
		C103,130.6,101.5,132.3,100,134.1 M128.8,146.8c1.7,1.6,3.5,3.2,5.3,4.7c4.5-6.5,9.9-12.3,15.9-17.4c-1.4-1.7-2.8-3.4-4.2-5.2
		C140.1,134.9,134.1,140.6,128.8,146.8 M80.7,163.7c-1.6,3.3-2.5,6.9-2.4,10.5c2,0.2,4-0.1,5.8-0.9c9.5-3.9,17.7-10.2,25.7-16.6
		c0.9-0.7,2.3-1.8,1.4-3.1c-3.7-6-8.7-11.1-14.3-15.5C90.7,146.1,85,154.6,80.7,163.7 M138.5,154.2c0,0.3,0.1,0.9,0.1,1.2
		c6.3,5.5,13.1,10.5,20.4,14.6c3.9,2,8.1,4.6,12.7,4.2c0.3-5.4-2.1-10.4-4.6-15.1c-4-7.4-8.7-14.4-14-20.9
		C147.4,142.7,142.1,147.9,138.5,154.2 M118.3,156c3.2,7.1,5.6,14.4,6.6,22.1c1.2-7.7,3.5-15.1,6.6-22.2c-2.2-1.9-4.4-3.9-6.6-5.9
		C122.8,152.1,120.6,154,118.3,156z"/>
</g>
</svg>
